X:662
M:C|
L:1/8
K:C Minor
|:d|cdef gcec|fBdf bfdB|1 cdef gcec|dBfd c/c/c c:|2 cdef gbfd|Bdbd c/c/c c||

